X:2292
T:Er Ean Bashtey
T:No title collected
C:Tom Cain, Douglas, age 84
C:Traditional
O:Isle of Man
Z:Clague collection
B:Kiaull Vannin #292 
M:3/4 
L:1/4
Q:160 
K:D 
E|E2 E|B2 e|d2 c|B2 B/c/|d c B|e d c|B2 B/A/| 
G2 B|F2 B|G F E|B2 e|B2 B|G A F|E2|| 

